X:450
T: Cork Rambler
S: "First Collection of Traditional Irish Music" (M.Mulvihill)
Z: B.Black
L: 1/8
M: 4/4
R: reel
K: G
G2 BG FGAc|B2 Ac BE (3EDE|G2 BG FAB^c|dBAG FDEF|
G2 BG FGAc|B2 Ac BEEF|GABG FAB^c|dBAc BE E2||
(3gag fg edBA|G2 GA (3Bcd ef|g2 fg edB^c|dBAG FDDf|
(3gag fg edBA|G2 GA (3Bcd ef|gfed efge|dBAG FDEF||
